assets/dude/We–Townes.svg

<svg width="232" height="116" viewBox="0 0 232 116" fill="none" xmlns="http://www.w3.org/2000/svg">
<path d="M138.166 9.41996C138.026 8.99996 137.746 8.71996 137.046 8.71996H130.046C122.346 8.71996 123.186 0.459961 121.786 0.459961C120.386 0.459961 121.226 8.71996 113.526 8.71996H106.526C105.826 8.71996 105.546 8.99996 105.406 9.41996C104.986 10.54 101.066 38.54 101.066 42.74C101.066 43.44 101.626 44 102.326 44H117.726C118.286 44 118.566 44.28 118.566 44.56C118.566 44.98 118.146 45.82 118.146 45.82L107.366 69.9C106.666 71.3 106.106 71.72 105.406 71.72H92.9462C92.2462 71.72 91.6862 71.3 90.8462 69.76L80.2062 45.82C80.2062 45.82 79.7862 44.98 79.7862 44.56C79.7862 44.28 80.0662 44 80.6262 44H91.1262C91.8262 44 92.3862 43.44 92.3862 42.74C92.3862 38.54 88.4662 10.54 88.0462 9.41996C87.9062 8.99996 87.6262 8.71996 86.9262 8.71996H79.9262C72.2262 8.71996 73.0662 0.459961 71.6662 0.459961C70.2662 0.459961 71.1062 8.71996 63.4062 8.71996H56.4062C55.7062 8.71996 55.4262 8.99996 55.2862 9.41996C54.8662 10.54 50.9462 38.54 50.9462 42.74C50.9462 43.44 51.5062 44 52.2062 44H64.8062C65.3662 44 65.6462 44.28 65.6462 44.56C65.6462 44.98 65.2262 45.82 65.2262 45.82L54.4462 69.9C53.7462 71.3 53.1862 71.72 52.4862 71.72H40.0262C39.3262 71.72 38.7662 71.3 37.9262 69.76L27.2862 45.82C27.2862 45.82 26.8662 44.98 26.8662 44.56C26.8662 44.28 27.1462 44 27.7062 44H41.0062C41.7062 44 42.2662 43.44 42.2662 42.74C42.2662 38.54 38.3462 10.54 37.9262 9.41996C37.7862 8.99996 37.5062 8.71996 36.8062 8.71996H29.8062C22.1062 8.71996 22.9462 0.459961 21.5462 0.459961C20.1462 0.459961 20.9862 8.71996 13.2862 8.71996H6.28617C5.58617 8.71996 5.30617 8.99996 5.16617 9.41996C4.74617 10.54 0.826172 38.54 0.826172 42.74C0.826172 43.44 1.38617 44 2.08617 44H10.3462C11.0462 44 11.7462 44.56 12.3062 45.82L39.3262 106.86C39.6062 107.42 40.8662 109.52 43.8062 109.52C46.4662 109.52 47.8662 107.42 48.1462 106.86L68.7262 60.8C68.7262 60.8 69.4262 58.98 70.2662 58.98C71.1062 58.98 71.8062 60.8 71.8062 60.8L92.2462 106.86C92.5262 107.42 93.7862 109.52 96.7262 109.52C99.3862 109.52 100.786 107.42 101.066 106.86L128.226 45.82C128.786 44.56 129.486 44 130.186 44H141.246C141.946 44 142.506 43.44 142.506 42.74C142.506 38.54 138.586 10.54 138.166 9.41996Z" fill="#FF1C31"/>
<path d="M179.735 8.71996C172.035 8.71996 172.875 0.459961 171.475 0.459961C170.075 0.459961 170.915 8.71996 163.215 8.71996H153.415C152.715 8.71996 152.435 8.99996 152.295 9.41996C151.875 10.54 147.955 38.54 147.955 42.74C147.955 43.44 148.515 44 149.215 44H163.075C163.775 44 164.335 44.56 164.335 45.26V70.46C164.335 71.16 163.775 71.72 163.075 71.72H149.215C148.515 71.72 147.955 72.28 147.955 72.98C147.955 77.18 151.875 105.18 152.295 106.3C152.435 106.72 152.715 107 153.415 107H163.215C170.915 107 170.075 115.26 171.475 115.26C172.875 115.26 172.035 107 179.735 107H199.335C207.035 107 206.195 115.26 207.595 115.26C208.995 115.26 208.155 107 215.855 107H225.655C226.355 107 226.635 106.72 226.775 106.3C227.195 105.18 231.115 77.88 231.115 73.68C231.115 69.48 230.555 65.84 230.555 65.84C230.555 65.14 229.995 64.58 229.295 64.58H222.015C221.315 64.58 220.755 65.14 220.755 65.84C220.755 69.34 217.955 71.72 214.455 71.72H175.675C174.975 71.72 174.415 71.16 174.415 70.46V62.9C174.415 62.2 174.975 61.64 175.675 61.64H186.875C187.575 61.64 188.135 62.2 188.135 62.9V64.16C188.135 64.86 188.695 65.42 189.395 65.42H208.295C208.995 65.42 209.555 64.86 209.555 64.16V51.56C209.555 50.86 208.995 50.3 208.295 50.3H189.395C188.695 50.3 188.135 50.86 188.135 51.56V52.82C188.135 53.52 187.575 54.08 186.875 54.08H175.675C174.975 54.08 174.415 53.52 174.415 52.82V45.26C174.415 44.56 174.975 44 175.675 44H214.455C217.955 44 220.755 46.38 220.755 49.88C220.755 50.58 221.315 51.14 222.015 51.14H229.295C229.995 51.14 230.555 50.58 230.555 49.88C230.555 49.88 231.115 46.24 231.115 42.04C231.115 37.84 227.195 10.54 226.775 9.41996C226.635 8.99996 226.355 8.71996 225.655 8.71996H215.855C208.155 8.71996 208.995 0.459961 207.595 0.459961C206.195 0.459961 207.035 8.71996 199.335 8.71996H179.735Z" fill="#FF1C31"/>
</svg>

<svg xmlns="http://www.w3.org/2000/svg" fill="none" viewBox="0 0 232 116"><path fill="#FF1C31" d="M138.166 9.42c-.14-.42-.42-.7-1.12-.7h-7c-7.7 0-6.86-8.26-8.26-8.26-1.4 0-.56 8.26-8.26 8.26h-7c-.7 0-.98.28-1.12.7-.42 1.12-4.34 29.12-4.34 33.32 0 .7.56 1.26 1.26 1.26h15.4c.56 0 .84.28.84.56 0 .42-.42 1.26-.42 1.26l-10.78 24.08c-.7 1.4-1.26 1.82-1.96 1.82h-12.46c-.7 0-1.26-.42-2.1-1.96l-10.64-23.94s-.42-.84-.42-1.26c0-.28.28-.56.84-.56h10.5c.7 0 1.26-.56 1.26-1.26 0-4.2-3.92-32.2-4.34-33.32-.14-.42-.42-.7-1.12-.7h-7c-7.7 0-6.86-8.26-8.26-8.26-1.4 0-.56 8.26-8.26 8.26h-7c-.7 0-.98.28-1.12.7-.42 1.12-4.34 29.12-4.34 33.32 0 .7.56 1.26 1.26 1.26h12.6c.56 0 .84.28.84.56 0 .42-.42 1.26-.42 1.26L54.446 69.9c-.7 1.4-1.26 1.82-1.96 1.82h-12.46c-.7 0-1.26-.42-2.1-1.96l-10.64-23.94s-.42-.84-.42-1.26c0-.28.28-.56.84-.56h13.3c.7 0 1.26-.56 1.26-1.26 0-4.2-3.92-32.2-4.34-33.32-.14-.42-.42-.7-1.12-.7h-7c-7.7 0-6.86-8.26-8.26-8.26-1.4 0-.56 8.26-8.26 8.26h-7c-.7 0-.98.28-1.12.7-.42 1.12-4.34 29.12-4.34 33.32 0 .7.56 1.26 1.26 1.26h8.26c.7 0 1.4.56 1.96 1.82l27.02 61.04c.28.56 1.54 2.66 4.48 2.66 2.66 0 4.06-2.1 4.34-2.66l20.58-46.06s.7-1.82 1.54-1.82c.84 0 1.54 1.82 1.54 1.82l20.44 46.06c.28.56 1.54 2.66 4.48 2.66 2.66 0 4.06-2.1 4.34-2.66l27.16-61.04c.56-1.26 1.26-1.82 1.96-1.82h11.06c.7 0 1.26-.56 1.26-1.26 0-4.2-3.92-32.2-4.34-33.32zM179.735 8.72c-7.7 0-6.86-8.26-8.26-8.26-1.4 0-.56 8.26-8.26 8.26h-9.8c-.7 0-.98.28-1.12.7-.42 1.12-4.34 29.12-4.34 33.32 0 .7.56 1.26 1.26 1.26h13.86c.7 0 1.26.56 1.26 1.26v25.2c0 .7-.56 1.26-1.26 1.26h-13.86c-.7 0-1.26.56-1.26 1.26 0 4.2 3.92 32.2 4.34 33.32.14.42.42.7 1.12.7h9.8c7.7 0 6.86 8.26 8.26 8.26 1.4 0 .56-8.26 8.26-8.26h19.6c7.7 0 6.86 8.26 8.26 8.26 1.4 0 .56-8.26 8.26-8.26h9.8c.7 0 .98-.28 1.12-.7.42-1.12 4.34-28.42 4.34-32.62 0-4.2-.56-7.84-.56-7.84 0-.7-.56-1.26-1.26-1.26h-7.28c-.7 0-1.26.56-1.26 1.26 0 3.5-2.8 5.88-6.3 5.88h-38.78c-.7 0-1.26-.56-1.26-1.26V62.9c0-.7.56-1.26 1.26-1.26h11.2c.7 0 1.26.56 1.26 1.26v1.26c0 .7.56 1.26 1.26 1.26h18.9c.7 0 1.26-.56 1.26-1.26v-12.6c0-.7-.56-1.26-1.26-1.26h-18.9c-.7 0-1.26.56-1.26 1.26v1.26c0 .7-.56 1.26-1.26 1.26h-11.2c-.7 0-1.26-.56-1.26-1.26v-7.56c0-.7.56-1.26 1.26-1.26h38.78c3.5 0 6.3 2.38 6.3 5.88 0 .7.56 1.26 1.26 1.26h7.28c.7 0 1.26-.56 1.26-1.26 0 0 .56-3.64.56-7.84 0-4.2-3.92-31.5-4.34-32.62-.14-.42-.42-.7-1.12-.7h-9.8c-7.7 0-6.86-8.26-8.26-8.26-1.4 0-.56 8.26-8.26 8.26h-19.6z"/></svg>
